icons/solid/document-minus.svg

<svg width="24" height="24" viewBox="0 0 24 24" fill="none" xmlns="http://www.w3.org/2000/svg">
<path fill-rule="evenodd" clip-rule="evenodd" d="M5.625 1.5H9C11.0711 1.5 12.75 3.17893 12.75 5.25V7.125C12.75 8.16053 13.5895 9 14.625 9H16.5C18.5711 9 20.25 10.6789 20.25 12.75V20.625C20.25 21.6605 19.4105 22.5 18.375 22.5H5.625C4.58947 22.5 3.75 21.6605 3.75 20.625V3.375C3.75 2.33947 4.58947 1.5 5.625 1.5ZM9.75 14.25C9.33579 14.25 9 14.5858 9 15C9 15.4142 9.33579 15.75 9.75 15.75H15C15.4142 15.75 15.75 15.4142 15.75 15C15.75 14.5858 15.4142 14.25 15 14.25H9.75Z" fill="#0F172A"/>
<path d="M14.25 5.25C14.25 3.93695 13.768 2.73648 12.9712 1.8159C16.3701 2.70377 19.0462 5.37988 19.9341 8.77881C19.0135 7.98204 17.8131 7.5 16.5 7.5H14.625C14.4179 7.5 14.25 7.33211 14.25 7.125V5.25Z" fill="#0F172A"/>
</svg>

<svg xmlns="http://www.w3.org/2000/svg" viewBox="0 0 24 24" fill="currentColor" aria-hidden="true">
  <path fill-rule="evenodd" d="M5.625 1.5H9a3.75 3.75 0 013.75 3.75v1.875c0 1.036.84 1.875 1.875 1.875H16.5a3.75 3.75 0 013.75 3.75v7.875c0 1.035-.84 1.875-1.875 1.875H5.625a1.875 1.875 0 01-1.875-1.875V3.375c0-1.036.84-1.875 1.875-1.875zM9.75 14.25a.75.75 0 000 1.5H15a.75.75 0 000-1.5H9.75z" clip-rule="evenodd"/>
  <path d="M14.25 5.25a5.23 5.23 0 00-1.279-3.434 9.768 9.768 0 016.963 6.963A5.23 5.23 0 0016.5 7.5h-1.875a.375.375 0 01-.375-.375V5.25z"/>
</svg>
